images/twitter-orange.svg

<svg width="82" height="82" viewBox="0 0 82 82" fill="none" xmlns="http://www.w3.org/2000/svg">
<path d="M61.8203 8.48828C61.8203 9.37289 61.1034 10.0898 60.2188 10.0898C59.3341 10.0898 58.6172 9.37289 58.6172 8.48828C58.6172 7.60367 59.3341 6.88672 60.2188 6.88672C61.1034 6.88672 61.8203 7.60367 61.8203 8.48828Z" fill="#DB805D"/>
<g filter="url(#filter0_d)">
<path d="M65.452 29.5581C65.2731 29.5663 65.1004 29.5706 64.9258 29.5731L65.8974 26.9268C66.3616 25.6631 65.1467 24.4206 63.8723 24.8604C61.6282 25.6337 60.6423 26.1217 59.0232 26.5421C54.7897 22.7371 48.5405 22.5719 44.0768 25.3159C40.4132 27.5681 38.4194 31.4594 39.0881 36.042C31.9155 35.0585 26.0492 31.7303 21.2038 25.9102C20.8641 25.5023 20.3448 25.289 19.8168 25.3409C19.2888 25.3928 18.8209 25.7025 18.5669 26.1686C16.553 29.8641 16.4279 34.2965 18.5012 38.0602C17.6879 38.0871 17.0147 38.7233 16.9565 39.5479C16.7614 42.3087 18.0119 46.2225 21.1143 48.9095C20.5907 49.3237 20.3749 50.0244 20.587 50.6669C21.6605 53.925 23.8896 56.4444 26.783 57.8457C23.8921 59.0719 21.5592 59.8546 17.7235 61.1158C17.1173 61.3147 16.6875 61.8553 16.6293 62.4909C16.5712 63.1265 16.8959 63.7365 17.4558 64.0424C18.692 64.7181 23.0587 66.9746 27.3755 67.6516C36.9267 69.1499 47.6233 67.945 54.8379 61.4474C60.9613 55.9332 62.9608 48.0556 62.5423 39.8576C62.4797 38.6195 62.8182 37.4396 63.4963 36.5349C63.7941 36.1377 62.3408 38.0752 66.8164 32.1025C67.6066 31.0208 66.7945 29.5025 65.452 29.5581Z" fill="#DB805D"/>
</g>
<path d="M73.9922 0H8.00781C3.59225 0 0 3.59225 0 8.00781V73.9922C0 78.4077 3.59225 82 8.00781 82H73.9922C78.4077 82 82 78.4077 82 73.9922V8.00781C82 3.59225 78.4077 0 73.9922 0ZM78.7969 73.9922C78.7969 76.6416 76.6416 78.7969 73.9922 78.7969H8.00781C5.35835 78.7969 3.20312 76.6416 3.20312 73.9922V8.00781C3.20312 5.35835 5.35835 3.20312 8.00781 3.20312H73.9922C76.6416 3.20312 78.7969 5.35835 78.7969 8.00781V73.9922Z" fill="#DB805D"/>
<path d="M21.7812 10.0898H53.8125C54.6971 10.0898 55.4141 9.37289 55.4141 8.48828C55.4141 7.60367 54.6971 6.88672 53.8125 6.88672H21.7812C20.8966 6.88672 20.1797 7.60367 20.1797 8.48828C20.1797 9.37289 20.8966 10.0898 21.7812 10.0898Z" fill="#DB805D"/>
<defs>
<filter id="filter0_d" x="12.6227" y="23.4453" width="58.5045" height="52.7827" filterUnits="userSpaceOnUse" color-interpolation-filters="sRGB">
<feFlood flood-opacity="0" result="BackgroundImageFix"/>
<feColorMatrix in="SourceAlpha" type="matrix" values="0 0 0 0 0 0 0 0 0 0 0 0 0 0 0 0 0 0 127 0"/>
<feOffset dy="4"/>
<feGaussianBlur stdDeviation="2"/>
<feColorMatrix type="matrix" values="0 0 0 0 0 0 0 0 0 0 0 0 0 0 0 0 0 0 0.25 0"/>
<feBlend mode="normal" in2="BackgroundImageFix" result="effect1_dropShadow"/>
<feBlend mode="normal" in="SourceGraphic" in2="effect1_dropShadow" result="shape"/>
</filter>
</defs>
</svg>

<?xml version="1.0" encoding="UTF-8"?>
<svg width="82" height="82" version="1.1" viewBox="0 0 82 82" xml:space="preserve" xmlns="http://www.w3.org/2000/svg"><path d="m61.82 8.4883c0 0.88461-0.7169 1.6015-1.6015 1.6015-0.8847 0-1.6016-0.71691-1.6016-1.6015s0.7169-1.6016 1.6016-1.6016c0.8846 0 1.6015 0.71695 1.6015 1.6016z" fill="#DB805D"/><path d="m17.13 21.302 18.381 26.797-17.992 20.842h3.9862l15.766-18.276 12.537 18.276h15.061l-19.204-27.994 16.946-19.645h-3.974l-14.735 17.071-11.711-17.071zm4.76 2.5073h8.9813l29.238 42.624h-8.9813z" fill="#db805d" stroke-width="1.2536"/><path d="m73.992 0h-65.984c-4.4156 0-8.0078 3.5922-8.0078 8.0078v65.984c0 4.4155 3.5922 8.0078 8.0078 8.0078h65.984c4.4155 0 8.0078-3.5923 8.0078-8.0078v-65.984c0-4.4156-3.5923-8.0078-8.0078-8.0078zm4.8047 73.992c0 2.6494-2.1553 4.8047-4.8047 4.8047h-65.984c-2.6495 0-4.8047-2.1553-4.8047-4.8047v-65.984c0-2.6495 2.1552-4.8047 4.8047-4.8047h65.984c2.6494 0 4.8047 2.1552 4.8047 4.8047v65.984z" fill="#DB805D"/><path d="m21.781 10.09h32.031c0.8846 0 1.6016-0.71691 1.6016-1.6015s-0.717-1.6016-1.6016-1.6016h-32.031c-0.8846 0-1.6015 0.71695-1.6015 1.6016s0.7169 1.6015 1.6015 1.6015z" fill="#DB805D"/></svg>
